svgs/regular/hands-praying.svg

<svg xmlns="http://www.w3.org/2000/svg" viewBox="0 0 640 512"><!-- Font Awesome Pro 6.0.0-alpha2 by @fontawesome - https://fontawesome.com License - https://fontawesome.com/license (Commercial License) --><path d="M640 488.124C640 477.198 632.516 467.675 621.847 465.025L434.875 413.039C381.5 399.627 344 351.94 344 297.298V228.5C344 215.336 354.75 204.657 368 204.657C381.125 204.657 392 215.336 392 228.5V284.135C392 292.877 399.2 300.03 408 300.03H424C432.8 300.03 440 292.877 440 284.135V208.01C440 195.964 436.5 184.166 430 174.107L372.5 85.688C365.875 75.256 367 60.851 376.625 53.027C388 43.961 404.5 46.818 412.125 58.864L502 197.951C508.5 208.134 511.875 219.931 511.875 231.977V335.051L610.196 367.495C625.328 371.271 640 359.903 640 344.402V344.402C640 333.48 632.521 323.959 621.856 321.306L559.75 297.919V232.101C559.75 210.99 553.75 190.375 542.5 172.617L452.625 33.406C439.5 12.667 416.5 0 391.75 0C378.125 0 365 3.726 353.375 11.052C334.5 22.85 322.25 42.471 320 64.949C319.875 66.811 319.75 68.426 319.75 70.164C319.75 68.426 319.625 66.811 319.5 64.949C317.25 42.347 305 22.85 286.125 11.052C274.625 3.85 261.375 0 247.75 0C223 0 200 12.667 186.875 33.406L97 172.617C85.75 190.375 79.75 210.99 79.75 232.101V297.919L18.144 321.182C7.479 323.835 0 333.356 0 344.278V344.338C0 359.825 14.648 371.191 29.772 367.439L127.75 335.175V232.101C127.75 220.055 131.125 208.258 137.625 198.075L227.5 58.864C235 46.942 251.625 43.961 263 53.151C272.5 60.851 273.875 75.256 267.125 85.688L209.5 174.107C203 184.29 199.625 196.088 199.625 208.134V284.135C199.625 292.877 206.825 300.03 215.625 300.03H231.625C240.425 300.03 247.625 292.877 247.625 284.135V228.5C247.625 215.336 258.5 204.657 271.625 204.657C284.875 204.657 295.625 215.336 295.625 228.5V297.174C295.625 351.94 258.125 399.627 204.75 413.039L18.153 465.025C7.485 467.675 0 477.199 0 488.124V488.179C0 503.67 14.655 515.036 29.782 511.276L216.5 459.235C261.125 448.059 297.5 419.62 319.875 382.365C342.125 419.62 378.5 448.059 423.125 459.235L610.218 511.276C625.345 515.036 640 503.67 640 488.179V488.124ZM319.75 175.597C308.25 165.166 293.5 158.211 277.125 157.094L307 110.028C314.625 97.982 319.5 85.688 319.625 72.151C319.875 85.688 324.625 97.982 332.25 110.028L362.125 157.094C346 158.211 331.25 165.166 319.75 175.597Z"/></svg>

<svg xmlns="http://www.w3.org/2000/svg" viewBox="0 0 640 512"><!--! Font Awesome Pro 6.0.0-alpha3 by @fontawesome - https://fontawesome.com License - https://fontawesome.com/license (Commercial License) --><path d="M640 488.2c0-10.93-7.484-20.5-18.15-23.15l-186.1-51.99C381.5 399.6 344 351.9 344 297.3V228.5c0-13.16 10.75-23.84 24-23.84c13.12 0 24 10.68 24 23.84v55.63c0 8.743 7.2 15.9 16 15.9h16c8.8 0 16-7.153 16-15.9V208c0-12.05-3.5-23.84-10-33.9L372.5 85.69c-6.625-10.43-5.5-24.84 4.125-32.66C388 43.96 404.5 46.82 412.1 58.86l89.87 139.1c6.5 10.18 9.875 21.98 9.875 34.03v103.1l98.32 32.44C625.3 371.3 640 359.9 640 344.4c0-10.92-7.479-20.44-18.14-23.1l-62.11-23.39V232.1c0-21.11-6-41.73-17.25-59.48l-89.88-139.2C439.5 12.67 416.5 0 391.8 0c-13.62 0-26.75 3.726-38.38 11.05C334.5 22.85 322.3 42.47 320 64.95C319.9 66.81 319.8 68.43 319.8 70.16c0-1.739-.125-3.353-.25-5.216C317.3 42.35 305 22.85 286.1 11.05C274.6 3.85 261.4 0 247.8 0C223 0 200 12.67 186.9 33.41L97 172.6c-11.25 17.76-17.25 38.37-17.25 59.48v65.82l-61.61 23.26C7.479 323.8 0 333.4 0 344.3c0 15.49 14.65 26.91 29.77 23.16l97.98-32.26V232.1c0-12.05 3.375-23.84 9.875-34.03L227.5 58.86C235 46.94 251.6 43.96 263 53.15c9.5 7.699 10.88 22.1 4.125 32.54L209.5 174.1C203 184.3 199.6 196.1 199.6 208.1v76c0 8.743 7.2 15.9 16 15.9h16c8.8 0 16-7.153 16-15.9V228.5c0-13.16 10.88-23.84 24-23.84c13.25 0 24 10.68 24 23.84v68.67c0 54.77-37.5 102.5-90.88 115.9l-186.6 51.99C7.485 467.7 0 477.2 0 488.1c0 15.49 14.66 26.91 29.78 23.15l186.7-52.04c44.63-11.18 81-39.61 103.4-76.87c22.25 37.26 58.63 65.69 103.3 76.87l187.1 52.04C625.3 515 640 503.7 640 488.2zM319.8 175.6c-11.5-10.43-26.25-17.39-42.63-18.5L307 110c7.625-12.05 12.5-24.34 12.62-37.88c.25 13.54 5 25.83 12.62 37.88l29.88 47.07C345.1 158.2 331.3 165.2 319.8 175.6z"/></svg>
